X: 11
T: Old Copperplate, The
Z: Marc-Antoine Bérubé
S: https://thesession.org/tunes/410#setting53461
R: reel
M: 4/4
L: 1/8
K: Ador
|: A2EA cAA2 | aged cAFA | G2DG BGG2 | gedc BAGB |
A2EA cAA2 | aged cAGB | ABcd efge | aged cAA2 :|
|: ageg a2c'b | aged cAA2 | gfef g2ba | gedc BGG2|
ageg a2c'b | aged cAGB | ABcd efge | aged cAA2 :|

